!!!OTL: DU TAPFRER HELD
!!!ARE: Europa, Mitteleuropa, Deutschland
!!!SCT: E0331
!!!YEM: Copyright 1995, estate of Helmut Schaffrath.
**kern
*ICvox
*Ivox
*M2/4
*k[f#]
*G:
=1
{4dd
8b
8dd
=2
4g
8r}
{8g
=3
8.f#
16e
8f#
8g
=4
4a
8r}
{8a
=5
8.dd
16dd
8ff#
8ee
=6
4dd
8r}
{8g
=7
8.f#
16e
8f#
8g
=8
4a
8r}
{8a
=9
8.g
16a
8b
8cc
=10
4.dd}
{8ee
=11
8dd
16dd
16cc
8b
8cc
=12
4b
4a
=13
4g
4r}
==
!!!AGN: historisches Lied, Siebenjaehriger Krieg (1757)
!!!ONB: ESAC (Essen Associative Code) Database: ERK1
!!!AMT: simple duple
!!!AIN: vox
!!!EED: Helmut Schaffrath
!!!EEV: 1.0
*-
